components/Common/Svg/svgs/mobileUXDesign.svg

<svg
  width="90"
  height="90"
  viewBox="0 0 90 90"
  fill="none"
  xmlns="http://www.w3.org/2000/svg"
>
  <circle
    opacity="0.5"
    cx="45"
    cy="45"
    r="45"
    fill="#FFE603"
  ></circle>
  <path
    d="M40.1268 27.5001C37.7296 27.4919 35.3827 28.1873 33.3768 29.5001L41.3768 37.5001C41.6433 37.7274 41.8615 38.0057 42.0187 38.3187C42.1759 38.6317 42.2689 38.9729 42.2922 39.3224C42.3155 39.6718 42.2686 40.0224 42.1544 40.3535C42.0401 40.6845 41.8607 40.9894 41.6268 41.2501C41.3661 41.484 41.0613 41.6633 40.7302 41.7776C40.3992 41.8919 40.0486 41.9388 39.6991 41.9155C39.3497 41.8922 39.0084 41.7992 38.6954 41.642C38.3825 41.4848 38.1041 41.2665 37.8768 41.0001L29.6268 33.0001C28.2004 35.099 27.4582 37.5877 27.5018 40.1251C27.515 43.4694 28.8493 46.6729 31.2141 49.0377C33.5789 51.4025 36.7825 52.7369 40.1268 52.7501C41.2213 52.7561 42.3125 52.6302 43.3768 52.3751L51.7518 60.7501C52.9287 61.927 54.5249 62.5881 56.1893 62.5881C57.8537 62.5881 59.4499 61.927 60.6268 60.7501C61.8037 59.5732 62.4649 57.977 62.4649 56.3126C62.4649 54.6482 61.8037 53.052 60.6268 51.8751L52.2518 43.5001C52.5069 42.4357 52.6328 41.3445 52.6268 40.2501C52.6601 38.5876 52.3613 36.9353 51.748 35.3897C51.1348 33.8442 50.2193 32.4365 49.0552 31.2492C47.8912 30.0618 46.5019 29.1187 44.9688 28.4749C43.4357 27.8312 41.7896 27.4997 40.1268 27.5001ZM50.1268 40.1251C50.125 41.0133 49.9988 41.8969 49.7518 42.7501L49.3768 44.1251L50.3768 45.1251L58.7518 53.5001C59.1085 53.8377 59.3923 54.2448 59.5858 54.6962C59.7792 55.1477 59.8783 55.6339 59.8768 56.1251C59.8909 56.618 59.7976 57.1081 59.6033 57.5614C59.409 58.0147 59.1185 58.4203 58.7518 58.7501C58.4133 59.1056 58.006 59.3886 57.5548 59.582C57.1035 59.7754 56.6177 59.8751 56.1268 59.8751C55.6359 59.8751 55.1501 59.7754 54.6989 59.582C54.2476 59.3886 53.8404 59.1056 53.5018 58.7501L45.1268 50.3751L44.1268 49.3751L42.7518 49.7501C41.8986 49.997 41.015 50.1232 40.1268 50.1251C37.4707 50.1177 34.9193 49.0882 33.0018 47.2501C32.0321 46.3376 31.2642 45.2323 30.7475 44.0052C30.2309 42.778 29.9768 41.4563 30.0018 40.1251C30.0035 39.1958 30.1297 38.2709 30.3768 37.3751L35.8768 42.8751C36.3416 43.3808 36.9023 43.789 37.5264 44.0758C38.1505 44.3625 38.8255 44.5222 39.5119 44.5455C40.1984 44.5688 40.8826 44.4552 41.5247 44.2113C42.1668 43.9674 42.7539 43.5982 43.2518 43.1251C43.7249 42.6271 44.0942 42.04 44.338 41.3979C44.5819 40.7558 44.6955 40.0716 44.6722 39.3852C44.649 38.6987 44.4893 38.0238 44.2025 37.3997C43.9157 36.7756 43.5076 36.2148 43.0018 35.7501L37.5018 30.2501C38.3102 29.9944 39.154 29.8678 40.0018 29.8751C42.658 29.8824 45.2094 30.912 47.1268 32.7501C49.046 34.7259 50.1218 37.3706 50.1268 40.1251Z"
    fill="black"
  ></path>
</svg>

<svg width="90" height="90" viewBox="0 0 90 90" fill="none" xmlns="http://www.w3.org/2000/svg"><circle opacity=".5" cx="45" cy="45" r="45" fill="#FFE603"/><path d="M40.127 27.5a12.25 12.25 0 0 0-6.75 2l8 8a2.623 2.623 0 0 1 .25 3.75 2.625 2.625 0 0 1-3.75-.25l-8.25-8a12.3 12.3 0 0 0-2.125 7.125A12.675 12.675 0 0 0 40.127 52.75c1.094.006 2.185-.12 3.25-.375l8.375 8.375a6.275 6.275 0 0 0 8.875-8.875L52.252 43.5c.255-1.064.38-2.156.375-3.25a12.499 12.499 0 0 0-12.5-12.75Zm10 12.625a9.51 9.51 0 0 1-.375 2.625l-.375 1.375 1 1 8.375 8.375a3.6 3.6 0 0 1 1.125 2.625 3.399 3.399 0 0 1-1.125 2.625 3.625 3.625 0 0 1-5.25 0l-8.375-8.375-1-1-1.375.375a9.517 9.517 0 0 1-2.625.375 10.338 10.338 0 0 1-7.125-2.875 9.539 9.539 0 0 1-3-7.125c.002-.93.128-1.854.375-2.75l5.5 5.5a5.176 5.176 0 0 0 7.375.25 5.175 5.175 0 0 0-.25-7.375l-5.5-5.5a8.06 8.06 0 0 1 2.5-.375 10.337 10.337 0 0 1 7.125 2.875 10.612 10.612 0 0 1 3 7.375Z" fill="#000"/></svg>
